build/img/header-shape-tablet.svg

<svg width="479" height="385" viewBox="0 0 479 385" fill="none" xmlns="http://www.w3.org/2000/svg">
<mask id="path-1-inside-1" fill="white">
<path fill-rule="evenodd" clip-rule="evenodd" d="M48.1059 3.94309C48.1059 3.96512 48.1057 3.9871 48.1054 4.00904L477.306 4.00901H478.461L477.883 5.00901L263.532 376.276C264.413 376.999 264.976 378.096 264.976 379.325C264.976 381.503 263.21 383.268 261.032 383.268C258.855 383.268 257.089 381.503 257.089 379.325C257.089 378.014 257.73 376.852 258.715 376.135L195.992 267.495L132.928 376.725C134.081 377.413 134.853 378.673 134.853 380.114C134.853 382.291 133.088 384.057 130.91 384.057C128.733 384.057 126.967 382.291 126.967 380.114C126.967 378.92 127.498 377.85 128.336 377.127L5.56145 164.475C5.06768 164.697 4.51984 164.821 3.94309 164.821C1.76538 164.821 0 163.056 0 160.878C0 158.7 1.76538 156.935 3.94309 156.935C5.9198 156.935 7.55678 158.389 7.84212 160.287L134.095 160.287L45.8797 7.49378C45.3607 7.7452 44.7782 7.88618 44.1628 7.88618C41.9851 7.88618 40.2197 6.1208 40.2197 3.94309C40.2197 1.76538 41.9851 0 44.1628 0C46.3405 0 48.1059 1.76538 48.1059 3.94309ZM262.685 375.744C262.182 375.512 261.622 375.382 261.032 375.382C260.524 375.382 260.038 375.478 259.592 375.654L196.569 266.495L257.311 161.287L257.889 160.287H256.734L135.249 160.287L46.7182 6.94617C47.3066 6.44503 47.7458 5.77404 47.9601 5.00904L476.729 5.00901L262.685 375.744ZM195.414 266.495L132.004 376.324C131.657 376.224 131.29 376.171 130.91 376.171C130.286 376.171 129.696 376.316 129.172 376.574L6.41386 163.951C7.21197 163.309 7.75458 162.362 7.86526 161.287L134.672 161.287L195.414 266.495ZM195.992 265.495L135.827 161.287L256.157 161.287L195.992 265.495Z"/>
</mask>
<path fill-rule="evenodd" clip-rule="evenodd" d="M48.1059 3.94309C48.1059 3.96512 48.1057 3.9871 48.1054 4.00904L477.306 4.00901H478.461L477.883 5.00901L263.532 376.276C264.413 376.999 264.976 378.096 264.976 379.325C264.976 381.503 263.21 383.268 261.032 383.268C258.855 383.268 257.089 381.503 257.089 379.325C257.089 378.014 257.73 376.852 258.715 376.135L195.992 267.495L132.928 376.725C134.081 377.413 134.853 378.673 134.853 380.114C134.853 382.291 133.088 384.057 130.91 384.057C128.733 384.057 126.967 382.291 126.967 380.114C126.967 378.92 127.498 377.85 128.336 377.127L5.56145 164.475C5.06768 164.697 4.51984 164.821 3.94309 164.821C1.76538 164.821 0 163.056 0 160.878C0 158.7 1.76538 156.935 3.94309 156.935C5.9198 156.935 7.55678 158.389 7.84212 160.287L134.095 160.287L45.8797 7.49378C45.3607 7.7452 44.7782 7.88618 44.1628 7.88618C41.9851 7.88618 40.2197 6.1208 40.2197 3.94309C40.2197 1.76538 41.9851 0 44.1628 0C46.3405 0 48.1059 1.76538 48.1059 3.94309ZM262.685 375.744C262.182 375.512 261.622 375.382 261.032 375.382C260.524 375.382 260.038 375.478 259.592 375.654L196.569 266.495L257.311 161.287L257.889 160.287H256.734L135.249 160.287L46.7182 6.94617C47.3066 6.44503 47.7458 5.77404 47.9601 5.00904L476.729 5.00901L262.685 375.744ZM195.414 266.495L132.004 376.324C131.657 376.224 131.29 376.171 130.91 376.171C130.286 376.171 129.696 376.316 129.172 376.574L6.41386 163.951C7.21197 163.309 7.75458 162.362 7.86526 161.287L134.672 161.287L195.414 266.495ZM195.992 265.495L135.827 161.287L256.157 161.287L195.992 265.495Z" fill="white"/>
<path d="M48.1054 4.00904L47.1055 3.9927L47.0889 5.00904L48.1054 5.00904L48.1054 4.00904ZM477.306 4.00901L477.306 3.00901L477.306 3.00901L477.306 4.00901ZM478.461 4.00901L479.327 4.50899L480.193 3.00901H478.461V4.00901ZM477.883 5.00901L478.749 5.50901L478.749 5.50899L477.883 5.00901ZM263.532 376.276L262.666 375.776L262.242 376.51L262.898 377.049L263.532 376.276ZM258.715 376.135L259.303 376.943L260.031 376.414L259.581 375.635L258.715 376.135ZM195.992 267.495L196.858 266.995L195.992 265.495L195.126 266.995L195.992 267.495ZM132.928 376.725L132.062 376.225L131.569 377.079L132.415 377.584L132.928 376.725ZM128.336 377.127L128.989 377.884L129.616 377.343L129.202 376.627L128.336 377.127ZM5.56145 164.475L6.42748 163.975L5.97523 163.191L5.1506 163.563L5.56145 164.475ZM7.84212 160.287L6.85325 160.435L6.98128 161.287L7.84212 161.287L7.84212 160.287ZM134.095 160.287L134.095 161.287L135.827 161.287L134.961 159.787L134.095 160.287ZM45.8797 7.49378L46.7457 6.99378L46.2807 6.18836L45.4437 6.59382L45.8797 7.49378ZM262.685 375.744L262.265 376.652L263.094 377.035L263.551 376.244L262.685 375.744ZM259.592 375.654L258.726 376.154L259.156 376.899L259.957 376.584L259.592 375.654ZM196.569 266.495L195.703 265.995L195.414 266.495L195.703 266.995L196.569 266.495ZM257.311 161.287L256.445 160.787L256.445 160.787L257.311 161.287ZM257.889 160.287L258.755 160.787L259.621 159.287H257.889V160.287ZM256.734 160.287L256.734 159.287L256.734 159.287L256.734 160.287ZM135.249 160.287L134.383 160.787L134.672 161.287L135.249 161.287L135.249 160.287ZM46.7182 6.94617L46.0698 6.18489L45.4358 6.72492L45.8522 7.44617L46.7182 6.94617ZM47.9601 5.00904L47.9601 4.00904L47.2018 4.00904L46.9972 4.7393L47.9601 5.00904ZM476.729 5.00901L477.595 5.50901L478.461 4.00901L476.729 4.00901L476.729 5.00901ZM132.004 376.324L131.728 377.285L132.479 377.502L132.87 376.824L132.004 376.324ZM195.414 266.495L196.28 266.995L196.569 266.495L196.28 265.995L195.414 266.495ZM129.172 376.574L128.306 377.074L128.773 377.884L129.613 377.471L129.172 376.574ZM6.41386 163.951L5.78679 163.172L5.11955 163.709L5.54784 164.451L6.41386 163.951ZM7.86526 161.287L7.86526 160.287L6.96293 160.287L6.87052 161.184L7.86526 161.287ZM134.672 161.287L135.538 160.787L135.249 160.287L134.672 160.287L134.672 161.287ZM135.827 161.287L135.827 160.287L134.095 160.287L134.961 161.787L135.827 161.287ZM195.992 265.495L195.126 265.995L195.992 267.495L196.858 265.995L195.992 265.495ZM256.157 161.287L257.023 161.787L257.889 160.287L256.157 160.287L256.157 161.287ZM49.1052 4.02538C49.1057 3.99809 49.1059 3.97066 49.1059 3.94309H47.1059C47.1059 3.95958 47.1058 3.97611 47.1055 3.9927L49.1052 4.02538ZM477.306 3.00901L48.1054 3.00904L48.1054 5.00904L477.306 5.00901L477.306 3.00901ZM478.461 3.00901H477.306V5.00901H478.461V3.00901ZM478.749 5.50899L479.327 4.50899L477.595 3.50902L477.017 4.50902L478.749 5.50899ZM264.398 376.776L478.749 5.50901L477.017 4.50901L262.666 375.776L264.398 376.776ZM262.898 377.049C263.558 377.59 263.976 378.408 263.976 379.325H265.976C265.976 377.784 265.269 376.408 264.167 375.503L262.898 377.049ZM263.976 379.325C263.976 380.951 262.658 382.268 261.032 382.268V384.268C263.762 384.268 265.976 382.055 265.976 379.325H263.976ZM261.032 382.268C259.407 382.268 258.089 380.951 258.089 379.325H256.089C256.089 382.055 258.302 384.268 261.032 384.268V382.268ZM258.089 379.325C258.089 378.347 258.566 377.48 259.303 376.943L258.126 375.326C256.894 376.223 256.089 377.68 256.089 379.325H258.089ZM195.126 267.995L257.849 376.635L259.581 375.635L196.858 266.995L195.126 267.995ZM133.794 377.225L196.858 267.995L195.126 266.995L132.062 376.225L133.794 377.225ZM135.853 380.114C135.853 378.307 134.883 376.727 133.44 375.866L132.415 377.584C133.279 378.099 133.853 379.04 133.853 380.114H135.853ZM130.91 385.057C133.64 385.057 135.853 382.844 135.853 380.114H133.853C133.853 381.739 132.536 383.057 130.91 383.057V385.057ZM125.967 380.114C125.967 382.844 128.18 385.057 130.91 385.057V383.057C129.285 383.057 127.967 381.739 127.967 380.114H125.967ZM127.683 376.37C126.634 377.275 125.967 378.617 125.967 380.114H127.967C127.967 379.223 128.362 378.425 128.989 377.884L127.683 376.37ZM4.69543 164.975L127.47 377.627L129.202 376.627L6.42748 163.975L4.69543 164.975ZM3.94309 165.821C4.66427 165.821 5.35193 165.666 5.97231 165.386L5.1506 163.563C4.78343 163.729 4.37542 163.821 3.94309 163.821V165.821ZM-1 160.878C-1 163.608 1.21309 165.821 3.94309 165.821V163.821C2.31767 163.821 1 162.503 1 160.878H-1ZM3.94309 155.935C1.2131 155.935 -1 158.148 -1 160.878H1C1 159.253 2.31767 157.935 3.94309 157.935V155.935ZM8.831 160.138C8.47316 157.759 6.422 155.935 3.94309 155.935V157.935C5.41759 157.935 6.6404 159.02 6.85325 160.435L8.831 160.138ZM134.095 159.287L7.84212 159.287L7.84212 161.287L134.095 161.287L134.095 159.287ZM45.0137 7.99378L133.229 160.787L134.961 159.787L46.7457 6.99378L45.0137 7.99378ZM44.1628 8.88618C44.9325 8.88618 45.6637 8.70957 46.3157 8.39374L45.4437 6.59382C45.0577 6.78083 44.624 6.88618 44.1628 6.88618V8.88618ZM39.2197 3.94309C39.2197 6.67308 41.4328 8.88618 44.1628 8.88618V6.88618C42.5374 6.88618 41.2197 5.56851 41.2197 3.94309H39.2197ZM44.1628 -1C41.4328 -1 39.2197 1.2131 39.2197 3.94309H41.2197C41.2197 2.31767 42.5374 1 44.1628 1V-1ZM49.1059 3.94309C49.1059 1.2131 46.8928 -1 44.1628 -1V1C45.7882 1 47.1059 2.31767 47.1059 3.94309H49.1059ZM261.032 376.382C261.475 376.382 261.892 376.479 262.265 376.652L263.104 374.836C262.473 374.544 261.77 374.382 261.032 374.382V376.382ZM259.957 376.584C260.289 376.454 260.651 376.382 261.032 376.382V374.382C260.397 374.382 259.787 374.503 259.226 374.723L259.957 376.584ZM260.458 375.154L197.435 265.995L195.703 266.995L258.726 376.154L260.458 375.154ZM197.435 266.995L258.177 161.787L256.445 160.787L195.703 265.995L197.435 266.995ZM258.177 161.787L258.755 160.787L257.023 159.787L256.445 160.787L258.177 161.787ZM257.889 159.287H256.734V161.287H257.889V159.287ZM256.734 159.287L135.249 159.287L135.249 161.287L256.734 161.287L256.734 159.287ZM136.115 159.787L47.5842 6.44617L45.8522 7.44617L134.383 160.787L136.115 159.787ZM47.3666 7.70745C48.1028 7.08043 48.6539 6.23974 48.9231 5.27879L46.9972 4.7393C46.8378 5.30834 46.5104 5.80963 46.0698 6.18489L47.3666 7.70745ZM47.9601 6.00904L476.729 6.00901L476.729 4.00901L47.9601 4.00904L47.9601 6.00904ZM475.863 4.50901L261.819 375.244L263.551 376.244L477.595 5.50901L475.863 4.50901ZM132.87 376.824L196.28 266.995L194.548 265.995L131.138 375.824L132.87 376.824ZM130.91 377.171C131.195 377.171 131.469 377.211 131.728 377.285L132.281 375.364C131.845 375.238 131.385 375.171 130.91 375.171V377.171ZM129.613 377.471C130.003 377.279 130.443 377.171 130.91 377.171V375.171C130.13 375.171 129.389 375.352 128.73 375.677L129.613 377.471ZM5.54784 164.451L128.306 377.074L130.038 376.074L7.27989 163.451L5.54784 164.451ZM6.87052 161.184C6.78816 161.984 6.38452 162.691 5.78679 163.172L7.04094 164.73C8.03942 163.926 8.72101 162.739 8.86001 161.389L6.87052 161.184ZM134.672 160.287L7.86526 160.287L7.86527 162.287L134.672 162.287L134.672 160.287ZM196.28 265.995L135.538 160.787L133.806 161.787L194.548 266.995L196.28 265.995ZM134.961 161.787L195.126 265.995L196.858 264.995L136.693 160.787L134.961 161.787ZM256.157 160.287L135.827 160.287L135.827 162.287L256.157 162.287L256.157 160.287ZM196.858 265.995L257.023 161.787L255.291 160.787L195.126 264.995L196.858 265.995Z" fill="black" fill-opacity="0.5" mask="url(#path-1-inside-1)"/>
</svg>

<svg width="479" height="385" fill="none" xmlns="http://www.w3.org/2000/svg"><mask id="a" fill="#fff"><path fill-rule="evenodd" clip-rule="evenodd" d="M48.106 3.943v.066H478.46l-.578 1-214.351 371.267a3.943 3.943 0 11-4.817-.141l-62.723-108.64-63.064 109.23a3.943 3.943 0 11-4.592.402L5.561 164.475a3.943 3.943 0 112.28-4.188h126.254L45.88 7.494a3.943 3.943 0 112.226-3.55zm214.579 371.801a3.937 3.937 0 00-3.093-.09l-63.023-109.159 60.742-105.208.578-1h-122.64L46.719 6.947a3.945 3.945 0 001.241-1.938h428.77L262.685 375.744zm-67.271-109.249l-63.41 109.829a3.945 3.945 0 00-1.094-.153c-.624 0-1.214.145-1.738.403L6.414 163.951a3.935 3.935 0 001.451-2.664h126.807l60.742 105.208zm.578-1l-60.165-104.208h120.33l-60.165 104.208z"/></mask><path fill-rule="evenodd" clip-rule="evenodd" d="M48.106 3.943v.066H478.46l-.578 1-214.351 371.267a3.943 3.943 0 11-4.817-.141l-62.723-108.64-63.064 109.23a3.943 3.943 0 11-4.592.402L5.561 164.475a3.943 3.943 0 112.28-4.188h126.254L45.88 7.494a3.943 3.943 0 112.226-3.55zm214.579 371.801a3.937 3.937 0 00-3.093-.09l-63.023-109.159 60.742-105.208.578-1h-122.64L46.719 6.947a3.945 3.945 0 001.241-1.938h428.77L262.685 375.744zm-67.271-109.249l-63.41 109.829a3.945 3.945 0 00-1.094-.153c-.624 0-1.214.145-1.738.403L6.414 163.951a3.935 3.935 0 001.451-2.664h126.807l60.742 105.208zm.578-1l-60.165-104.208h120.33l-60.165 104.208z" fill="#fff"/><path d="M48.105 4.009l-1-.016-.016 1.016h1.016v-1zm429.201 0v-1 1zm1.155 0l.866.5.866-1.5h-1.732v1zm-.578 1l.866.5-.866-.5zM263.532 376.276l-.866-.5-.424.734.656.539.634-.773zm-4.817-.141l.588.808.728-.529-.45-.779-.866.5zm-62.723-108.64l.866-.5-.866-1.5-.866 1.5.866.5zm-63.064 109.23l-.866-.5-.493.854.846.505.513-.859zm-4.592.402l.653.757.627-.541-.414-.716-.866.5zM5.561 164.475l.866-.5-.452-.784-.824.372.41.912zm2.281-4.188l-.989.148.128.852h.861v-1zm126.253 0v1h1.732l-.866-1.5-.866.5zM45.88 7.494l.866-.5-.465-.806-.837.406.436.9zm216.805 368.25l-.42.908.829.383.457-.791-.866-.5zm-3.093-.09l-.866.5.43.745.801-.315-.365-.93zm-63.023-109.159l-.866-.5-.289.5.289.5.866-.5zm60.742-105.208l-.866-.5.866.5zm.578-1l.866.5.866-1.5h-1.732v1zm-1.155 0v-1 1zm-121.485 0l-.866.5.289.5h.577v-1zM46.719 6.947l-.65-.762-.633.54.416.721.866-.5zm1.241-1.938v-1h-.758l-.205.73.963.27zm428.769 0l.866.5.866-1.5h-1.732v1zM132.004 376.324l-.276.961.751.217.391-.678-.866-.5zm63.41-109.829l.866.5.289-.5-.289-.5-.866.5zm-66.242 110.079l-.866.5.467.81.84-.413-.441-.897zM6.414 163.951l-.627-.779-.667.537.428.742.866-.5zm1.451-2.664v-1h-.902l-.092.897.994.103zm126.807 0l.866-.5-.289-.5h-.577v1zm1.155 0v-1h-1.732l.866 1.5.866-.5zm60.165 104.208l-.866.5.866 1.5.866-1.5-.866-.5zm60.165-104.208l.866.5.866-1.5h-1.732v1zM49.105 4.025v-.082h-2v.05l2 .032zM477.306 3.01h-429.2v2h429.2v-2zm1.155 0h-1.155v2h1.155v-2zm.288 2.5l.578-1-1.732-1-.578 1 1.732 1zM264.398 376.776L478.749 5.509l-1.732-1-214.351 371.267 1.732 1zm-1.5.273a2.932 2.932 0 011.078 2.276h2a4.936 4.936 0 00-1.809-3.822l-1.269 1.546zm1.078 2.276a2.943 2.943 0 01-2.944 2.943v2a4.944 4.944 0 004.944-4.943h-2zm-2.944 2.943a2.943 2.943 0 01-2.943-2.943h-2a4.943 4.943 0 004.943 4.943v-2zm-2.943-2.943a2.94 2.94 0 011.214-2.382l-1.177-1.617a4.94 4.94 0 00-2.037 3.999h2zm-62.963-111.33l62.723 108.64 1.732-1-62.723-108.64-1.732 1zm-61.332 109.23l63.064-109.23-1.732-1-63.064 109.23 1.732 1zm2.059 2.889c0-1.807-.97-3.387-2.413-4.248l-1.025 1.718a2.94 2.94 0 011.438 2.53h2zm-4.943 4.943a4.943 4.943 0 004.943-4.943h-2a2.943 2.943 0 01-2.943 2.943v2zm-4.943-4.943a4.943 4.943 0 004.943 4.943v-2a2.943 2.943 0 01-2.943-2.943h-2zm1.716-3.744a4.934 4.934 0 00-1.716 3.744h2c0-.891.395-1.689 1.022-2.23l-1.306-1.514zM4.695 164.975L127.47 377.627l1.732-1L6.427 163.975l-1.732 1zm-.752.846c.721 0 1.409-.155 2.03-.435l-.822-1.823a2.92 2.92 0 01-1.208.258v2zM-1 160.878a4.943 4.943 0 004.943 4.943v-2A2.943 2.943 0 011 160.878h-2zm4.943-4.943A4.943 4.943 0 00-1 160.878h2a2.943 2.943 0 012.943-2.943v-2zm4.888 4.203a4.944 4.944 0 00-4.888-4.203v2a2.944 2.944 0 012.91 2.5l1.978-.297zm125.264-.851H7.842v2h126.253v-2zM45.014 7.994l88.215 152.793 1.732-1L46.746 6.994l-1.732 1zm-.851.892c.77 0 1.5-.176 2.153-.492l-.872-1.8c-.386.187-.82.292-1.281.292v2zM39.22 3.943a4.943 4.943 0 004.943 4.943v-2a2.943 2.943 0 01-2.943-2.943h-2zM44.163-1a4.943 4.943 0 00-4.943 4.943h2A2.943 2.943 0 0144.163 1v-2zm4.943 4.943A4.943 4.943 0 0044.163-1v2a2.943 2.943 0 012.943 2.943h2zm211.926 372.439c.443 0 .86.097 1.233.27l.839-1.816a4.924 4.924 0 00-2.072-.454v2zm-1.075.202a2.94 2.94 0 011.075-.202v-2a4.94 4.94 0 00-1.806.341l.731 1.861zm.501-1.43l-63.023-109.159-1.732 1 63.023 109.159 1.732-1zm-63.023-108.159l60.742-105.208-1.732-1-60.742 105.208 1.732 1zm60.742-105.208l.578-1-1.732-1-.578 1 1.732 1zm-.288-2.5h-1.155v2h1.155v-2zm-1.155 0H135.249v2h121.485v-2zm-120.619.5L47.585 6.447l-1.733 1 88.531 153.34 1.732-1zM47.367 7.707a4.945 4.945 0 001.556-2.428l-1.926-.54a2.945 2.945 0 01-.927 1.446l1.297 1.522zm.593-1.698h428.77v-2H47.96v2zm427.903-1.5L261.819 375.244l1.732 1L477.595 5.509l-1.732-1zM132.87 376.824l63.41-109.829-1.732-1-63.41 109.829 1.732 1zm-1.96.347c.285 0 .559.04.818.114l.553-1.921a4.931 4.931 0 00-1.371-.193v2zm-1.297.3c.39-.192.83-.3 1.297-.3v-2c-.78 0-1.521.181-2.18.506l.883 1.794zM5.548 164.451l122.758 212.623 1.732-1L7.28 163.451l-1.732 1zm1.323-3.267a2.937 2.937 0 01-1.084 1.988l1.254 1.558a4.938 4.938 0 001.819-3.341l-1.99-.205zm127.801-.897H7.865v2h126.807v-2zm61.608 105.708l-60.742-105.208-1.732 1 60.742 105.208 1.732-1zm-61.319-104.208l60.165 104.208 1.732-1-60.165-104.208-1.732 1zm121.196-1.5h-120.33v2h120.33v-2zm-59.299 105.708l60.165-104.208-1.732-1-60.165 104.208 1.732 1z" fill="#000" fill-opacity=".5" mask="url(#a)"/></svg>
